src/assets/icons/javascript.svg

<svg width="51" height="50" viewBox="0 0 51 50" fill="none" xmlns="http://www.w3.org/2000/svg">
<g clip-path="url(#clip0_1479_21409)">
<path d="M43 0H8C3.85786 0 0.5 3.35786 0.5 7.5V42.5C0.5 46.6421 3.85786 50 8 50H43C47.1421 50 50.5 46.6421 50.5 42.5V7.5C50.5 3.35786 47.1421 0 43 0Z" fill="#F0DB4F"/>
<path d="M32.1406 36.1328C33.1172 37.793 34.4844 38.9648 36.7305 38.9648C38.6836 38.9648 39.9531 37.9883 39.9531 36.6211C39.9531 35.0586 38.6836 34.4727 36.5352 33.4961L35.3633 33.0078C31.9453 31.543 29.6992 29.7852 29.6992 25.9766C29.6992 22.4609 32.3359 19.7266 36.5352 19.7266C39.5625 19.7266 41.7109 20.8008 43.1758 23.5352L39.5625 25.8789C38.7812 24.4141 37.9023 23.8281 36.5352 23.8281C35.168 23.8281 34.2891 24.707 34.2891 25.8789C34.2891 27.2461 35.168 27.832 37.2188 28.7109L38.3906 29.1992C42.3945 30.957 44.6406 32.6172 44.6406 36.6211C44.6406 40.8203 41.3203 43.1641 36.8281 43.1641C32.4336 43.1641 29.6016 41.1133 28.2344 38.3789L32.1406 36.1328ZM15.5391 36.5234C16.3203 37.793 16.9062 38.9648 18.5664 38.9648C20.1289 38.9648 21.1055 38.3789 21.1055 36.0352V19.8242H25.793V35.8398C25.793 40.7227 22.9609 42.8711 18.7617 42.8711C14.9531 42.8711 12.8047 40.918 11.7305 38.5742L15.5391 36.5234Z" fill="#323330"/>
</g>
<defs>
<clipPath id="clip0_1479_21409">
<rect width="50" height="50" fill="white" transform="translate(0.5)"/>
</clipPath>
</defs>
</svg>

<svg xmlns="http://www.w3.org/2000/svg" width="51" height="50" fill="none"><g clip-path="url(#a)"><path fill="#F0DB4F" d="M43 0H8A7.5 7.5 0 0 0 .5 7.5v35A7.5 7.5 0 0 0 8 50h35a7.5 7.5 0 0 0 7.5-7.5v-35A7.5 7.5 0 0 0 43 0Z"/><path fill="#323330" d="M32.14 36.133c.977 1.66 2.344 2.832 4.59 2.832 1.954 0 3.223-.977 3.223-2.344 0-1.562-1.27-2.148-3.418-3.125l-1.172-.488c-3.418-1.465-5.664-3.223-5.664-7.031 0-3.516 2.637-6.25 6.836-6.25 3.028 0 5.176 1.074 6.64 3.808l-3.612 2.344c-.782-1.465-1.66-2.05-3.028-2.05-1.367 0-2.246.878-2.246 2.05 0 1.367.879 1.953 2.93 2.832l1.172.488c4.004 1.758 6.25 3.418 6.25 7.422 0 4.2-3.32 6.543-7.813 6.543-4.394 0-7.226-2.05-8.594-4.785l3.907-2.246Zm-16.6.39c.78 1.27 1.366 2.442 3.026 2.442 1.563 0 2.54-.586 2.54-2.93v-16.21h4.687V35.84c0 4.883-2.832 7.031-7.031 7.031-3.809 0-5.957-1.953-7.032-4.297l3.81-2.05Z"/></g><defs><clipPath id="a"><path fill="#fff" d="M.5 0h50v50H.5z"/></clipPath></defs></svg>
